assets/images/logo-envato-light.svg

<svg height="96" viewBox="0 0 500 96" width="500" xmlns="http://www.w3.org/2000/svg"><g fill="#fff" fill-rule="evenodd"><path d="m64.0556 9.62074c-2.4991-1.41618-9.7468-.54147-18.3688 2.16596-8.6554 5.3812-15.8414 12.8244-20.9152 21.6635-5.0737 8.8391-7.8768 18.7983-8.1584 28.9862 0 .5831-1.6661 0-1.9577-.25-2.2837-4.3123-3.6579-9.0473-4.0376-13.9121-.3798-4.8647.2431-9.7557 1.83-14.3701.6248-1.0829-1.4578-2.3741-1.8327-1.9992-2.2284 2.3553-4.18451 4.9542-5.83135 7.7473-4.8663469 8.7264-6.07768 19.0251-3.36891 28.6423 2.70878 9.6175 9.11706 17.77 17.82246 22.6738 4.2858 2.4075 9.0074 3.9395 13.8904 4.5069 4.8827.5676 9.8299.1594 14.5536-1.2008 4.724-1.3601 9.1305-3.6454 12.9638-6.7226 3.8335-3.0774 7.0173-6.8856 9.3667-11.2036 11.5795-20.8263.8331-62.8955-5.9563-66.64424z"/><path d="m128.491 19.6983c-21.326 0-36.9042 16.0779-36.9042 38.1954-.2468 5.0055.5511 10.0074 2.3429 14.6879 1.7916 4.6803 4.5377 8.9364 8.0633 12.4977 3.527 3.5613 7.755 6.3496 12.417 8.1877 4.663 1.8382 9.656 2.6859 14.664 2.4889 5.021.2023 10.028-.6578 14.693-2.5241 4.666-1.8663 8.885-4.6964 12.381-8.3056 1.422-1.4362 2.255-3.3532 2.333-5.3731.017-.8269-.134-1.6487-.445-2.415-.311-.7665-.775-1.4613-1.364-2.0423-.588-.5809-1.289-1.0357-2.06-1.3362-.77-.3008-1.594-.4412-2.421-.4127-.977.0247-1.938.2481-2.826.6563-.888.4081-1.684.9926-2.339 1.7179-2.322 2.4113-5.112 4.3237-8.199 5.6199-3.086 1.2963-6.405 1.9494-9.753 1.9191-5.713.0769-11.239-2.0396-15.438-5.9139-4.2-3.8744-6.754-9.2113-7.138-14.9123h48.401c5.248 0 7.789-2.4992 7.789-7.5808.044-1.6437-.054-3.288-.292-4.915-2.582-18.9519-15.245-30.2816-33.863-30.2816zm0 11.8293c11.579 0 18.994 7.4559 19.452 19.4935h-41.278c.541-5.3901 3.083-10.3817 7.123-13.9903 4.04-3.6084 9.286-5.572 14.703-5.5032z" fill-rule="nonzero"/><path d="m208.714 19.6979c-4.705-.0178-9.328 1.2341-13.383 3.624-4.053 2.3898-7.387 5.8289-9.65 9.9548v-4.9565c0-7.4975-5.748-7.8724-6.914-7.8724-1.005-.028-2.004.1636-2.928.5613-.923.3977-1.749.9921-2.419 1.7415s-1.168 1.636-1.461 2.5979c-.292.9619-.371 1.9761-.232 2.9717v58.3136c-.076 1.012.057 2.0289.393 2.9867.334.9581.864 1.8366 1.554 2.5807s1.526 1.3376 2.456 1.7435 1.934.6155 2.949.6155 2.019-.2096 2.949-.6155 1.766-.9994 2.456-1.7435c.691-.7441 1.22-1.6226 1.554-2.5807.335-.9578.469-1.9747.393-2.9867v-31.1562c0-13.6205 7.622-23.1588 18.576-23.1588 10.956 0 15.703 6.9975 15.703 21.4927v33.0305c-.075 1.0121.058 2.0289.393 2.9868.335.958.864 1.8366 1.553 2.5806.692.7441 1.527 1.3376 2.458 1.7435.929.406 1.933.6155 2.949.6155 1.015 0 2.019-.2095 2.948-.6155.931-.4059 1.766-.9994 2.458-1.7435.689-.744 1.218-1.6226 1.553-2.5806.336-.9579.468-1.9747.393-2.9868v-37.4874c0-14.2452-7.04-29.4484-26.701-29.4484z"/><path d="m301.894 20.4474c-1.709.0385-3.359.6449-4.686 1.7232-1.326 1.0784-2.257 2.5676-2.646 4.2332l-20.076 51.1076-19.951-51.1076c-.413-1.6757-1.367-3.1681-2.716-4.2453-1.349-1.077-3.015-1.6787-4.74-1.7111-1.915-.0224-3.762.7142-5.136 2.0489-1.373 1.3347-2.162 3.1588-2.195 5.0737.012 1.437.324 2.8556.916 4.1652l23.117 55.1482c.641 2.3203 2.025 4.3665 3.938 5.825 1.916 1.4582 4.257 2.2478 6.663 2.2478s4.747-.7896 6.663-2.2478c1.914-1.4585 3.297-3.5047 3.939-5.825l23.199-55.398c.575-1.3154.887-2.7305.918-4.1654.005-.9366-.179-1.8647-.543-2.7279-.362-.8634-.896-1.6441-1.57-2.2945-.675-.6505-1.474-1.1573-2.349-1.4896-.876-.3324-1.809-.4836-2.745-.4439z"/><path d="m344.625 19.6975c-8.801-.1828-17.433 2.4274-24.657 7.4559-1.04.5906-1.906 1.4439-2.513 2.4745-.608 1.0307-.933 2.2025-.945 3.3985-.021.7653.109 1.5272.385 2.2412s.694 1.3655 1.224 1.9164c.533.551 1.169.9903 1.872 1.292s1.46.4598 2.226.4651c1.513-.1107 2.96-.6609 4.165-1.5829 4.843-3.5295 10.668-5.4523 16.661-5.4981 10.871 0 17.078 5.5814 17.078 15.3282v1.6245c-24.368 0-49.191 2.9988-49.191 24.45.249 15.4115 13.287 22.4925 26.408 22.4925 4.655.2044 9.283-.7872 13.448-2.8797 4.163-2.0927 7.72-5.2168 10.335-9.0747v3.624c-.115.9662-.019 1.9457.278 2.872.299.9264.793 1.7778 1.448 2.4967.655.7188 1.458 1.2885 2.353 1.6701.896.3817 1.862.5665 2.835.5418.937-.026 1.856-.2496 2.701-.6557.845-.4062 1.594-.9859 2.199-1.7012.606-.7155 1.054-1.5504 1.315-2.4506.26-.9002.329-1.845.199-2.7731v-39.3619c0-17.7857-11.163-28.3655-29.864-28.3655zm12.496 40.0283h3.083v3.4155c.224 2.718-.136 5.4527-1.058 8.0196-.921 2.5666-2.383 4.9059-4.287 6.8599-1.902 1.9541-4.201 3.4774-6.743 4.4673-2.541.99-5.265 1.4233-7.989 1.2712-3.289 0-14.119-.7913-14.119-10.8297 0-11.8293 17.744-13.2038 31.113-13.2038z" fill-rule="nonzero"/><path d="m412.729 33.9441c.856.1151 1.728.0425 2.554-.2129.825-.2551 1.586-.6871 2.227-1.2659.642-.5785 1.15-1.2898 1.489-2.0846.341-.7949.502-1.6541.477-2.5181.031-.8703-.128-1.7367-.464-2.54-.337-.8033-.843-1.5243-1.484-2.114-.64-.5894-1.401-1.0333-2.23-1.3013-.828-.2678-1.705-.3535-2.569-.2508h-13.247v-13.37056c.136-1.03448.05-2.08604-.253-3.08443-.303-.99837-.816-1.92055-1.504-2.7049-.688-.78436-1.534-1.41281-2.487-1.843353-.95-.430542-1.98-.653257-3.024-.653257-1.043 0-2.075.222715-3.025.653257-.951.430543-1.797 1.058993-2.485 1.843353-.69.78435-1.201 1.70653-1.504 2.7049-.304.99839-.391 2.04995-.255 3.08443v64.06176c0 14.8284 7.249 22.659 20.828 22.659 3.167.0703 6.314-.5109 9.247-1.7077 1.182-.4774 2.205-1.2844 2.943-2.3256.739-1.041 1.162-2.2724 1.222-3.5474.029-.781-.104-1.5595-.387-2.2875-.286-.7278-.717-1.3895-1.266-1.9441-.552-.5546-1.209-.99-1.935-1.2797-.726-.2894-1.504-.4268-2.286-.4034-.891.037-1.774.191-2.624.4582-.989.2859-2.012.4399-3.04.4581-5.581 0-8.33-3.6653-8.33-11.5793v-36.9042z"/><path d="m461.297 19.6984c-5.048-.2017-10.082.6361-14.793 2.4613-4.711 1.8255-8.994 4.5995-12.588 8.1499-3.594 3.5503-6.418 7.8013-8.301 12.4892-1.881 4.6878-2.779 9.7125-2.638 14.7619-.086 5.0705.843 10.1069 2.732 14.8134s4.698 8.9883 8.265 12.5941c7.325 7.0634 17.147 10.9415 27.323 10.7879 5.067.1362 10.108-.7565 14.82-2.6241 4.711-1.8677 8.996-4.6713 12.594-8.2416 3.598-3.5701 6.433-7.8328 8.337-12.5303 1.903-4.6973 2.834-9.732 2.736-14.7994.13-5.0609-.782-10.0944-2.678-14.7883-1.895-4.6939-4.736-8.9481-8.345-12.4983-3.609-3.5504-7.91-6.3211-12.634-8.1404-4.724-1.8192-9.772-2.6481-14.83-2.4353zm0 63.437c-15.245 0-23.201-12.8707-23.201-25.5747 0-17.4525 12.039-25.4082 23.201-25.4082 11.163 0 23.202 7.9557 23.202 25.4082s-12.039 25.6996-23.202 25.6996z" fill-rule="nonzero"/></g></svg>

<?xml version="1.0" encoding="UTF-8"?>
<svg width="500px" height="96px" viewBox="0 0 500 96" version="1.1" xmlns="http://www.w3.org/2000/svg" xmlns:xlink="http://www.w3.org/1999/xlink">
    <!-- Generator: Sketch 52.6 (67491) - http://www.bohemiancoding.com/sketch -->
    <title>logo_envato</title>
    <desc>Created with Sketch.</desc>
    <g id="Page-1" stroke="none" stroke-width="1" fill="none" fill-rule="evenodd">
        <g id="logo_envato" fill="#FFFFFF">
            <path d="M64.0556,9.62074 C61.5565,8.20456 54.3088,9.07927 45.6868,11.7867 C37.0314,17.1679 29.8454,24.6111 24.7716,33.4502 C19.6979,42.2893 16.8948,52.2485 16.6132,62.4364 C16.6132,63.0195 14.9471,62.4364 14.6555,62.1864 C12.3718,57.8741 10.9976,53.1391 10.6179,48.2743 C10.2381,43.4096 10.861,38.5186 12.4479,33.9042 C13.0727,32.8213 10.9901,31.5301 10.6152,31.905 C8.3868,34.2603 6.43069,36.8592 4.78385,39.6523 C-0.0824969,48.3787 -1.29383,58.6774 1.41494,68.2946 C4.12372,77.9121 10.532,86.0646 19.2374,90.9684 C23.5232,93.3759 28.2448,94.9079 33.1278,95.4753 C38.0105,96.0429 42.9577,95.6347 47.6814,94.2745 C52.4054,92.9144 56.8119,90.6291 60.6452,87.5519 C64.4787,84.4745 67.6625,80.6663 70.0119,76.3483 C81.5914,55.522 70.845,13.4528 64.0556,9.70406 L64.0556,9.62074 Z" id="Path"></path>
            <path d="M128.491,19.6983 C107.165,19.6983 91.5868,35.7762 91.5868,57.8937 C91.34,62.8992 92.1379,67.9011 93.9297,72.5816 C95.7213,77.2619 98.4674,81.518 101.993,85.0793 C105.52,88.6406 109.748,91.4289 114.41,93.267 C119.073,95.1052 124.066,95.9529 129.074,95.7559 C134.095,95.9582 139.102,95.0981 143.767,93.2318 C148.433,91.3655 152.652,88.5354 156.148,84.9262 C157.57,83.49 158.403,81.573 158.481,79.5531 C158.498,78.7262 158.347,77.9044 158.036,77.1381 C157.725,76.3716 157.261,75.6768 156.672,75.0958 C156.084,74.5149 155.383,74.0601 154.612,73.7596 C153.842,73.4588 153.018,73.3184 152.191,73.3469 C151.214,73.3716 150.253,73.595 149.365,74.0032 C148.477,74.4113 147.681,74.9958 147.026,75.7211 C144.704,78.1324 141.914,80.0448 138.827,81.341 C135.741,82.6373 132.422,83.2904 129.074,83.2601 C123.361,83.337 117.835,81.2205 113.636,77.3462 C109.436,73.4718 106.882,68.1349 106.498,62.4339 L154.899,62.4339 C160.147,62.4339 162.688,59.9347 162.688,54.8531 C162.732,53.2094 162.634,51.5651 162.396,49.9381 C159.814,30.9862 147.151,19.6565 128.533,19.6565 L128.491,19.6983 Z M128.491,31.5276 C140.07,31.5276 147.485,38.9835 147.943,51.0211 L106.665,51.0211 C107.206,45.631 109.748,40.6394 113.788,37.0308 C117.828,33.4224 123.074,31.4588 128.491,31.5276 Z" id="Shape" fill-rule="nonzero"></path>
            <path d="M208.714,19.6979 C204.009,19.6801 199.386,20.932 195.331,23.3219 C191.278,25.7117 187.944,29.1508 185.681,33.2767 L185.681,28.3202 C185.681,20.8227 179.933,20.4478 178.767,20.4478 C177.762,20.4198 176.763,20.6114 175.839,21.0091 C174.916,21.4068 174.09,22.0012 173.42,22.7506 C172.75,23.5 172.252,24.3866 171.959,25.3485 C171.667,26.3104 171.588,27.3246 171.727,28.3202 L171.727,86.6338 C171.651,87.6458 171.784,88.6627 172.12,89.6205 C172.454,90.5786 172.984,91.4571 173.674,92.2012 C174.364,92.9453 175.2,93.5388 176.13,93.9447 C177.06,94.3506 178.064,94.5602 179.079,94.5602 C180.094,94.5602 181.098,94.3506 182.028,93.9447 C182.958,93.5388 183.794,92.9453 184.484,92.2012 C185.175,91.4571 185.704,90.5786 186.038,89.6205 C186.373,88.6627 186.507,87.6458 186.431,86.6338 L186.431,55.4776 C186.431,41.8571 194.053,32.3188 205.007,32.3188 C215.963,32.3188 220.71,39.3163 220.71,53.8115 L220.71,86.842 C220.635,87.8541 220.768,88.8709 221.103,89.8288 C221.438,90.7868 221.967,91.6654 222.656,92.4094 C223.348,93.1535 224.183,93.747 225.114,94.1529 C226.043,94.5589 227.047,94.7684 228.063,94.7684 C229.078,94.7684 230.082,94.5589 231.011,94.1529 C231.942,93.747 232.777,93.1535 233.469,92.4094 C234.158,91.6654 234.687,90.7868 235.022,89.8288 C235.358,88.8709 235.49,87.8541 235.415,86.842 L235.415,49.3546 C235.415,35.1094 228.375,19.9062 208.714,19.9062 L208.714,19.6979 Z" id="Path"></path>
            <path d="M301.894,20.4474 C300.185,20.4859 298.535,21.0923 297.208,22.1706 C295.882,23.249 294.951,24.7382 294.562,26.4038 L274.486,77.5114 L254.535,26.4038 C254.122,24.7281 253.168,23.2357 251.819,22.1585 C250.47,21.0815 248.804,20.4798 247.079,20.4474 C245.164,20.425 243.317,21.1616 241.943,22.4963 C240.57,23.831 239.781,25.6551 239.748,27.57 C239.76,29.007 240.072,30.4256 240.664,31.7352 L263.781,86.8834 C264.422,89.2037 265.806,91.2499 267.719,92.7084 C269.635,94.1666 271.976,94.9562 274.382,94.9562 C276.788,94.9562 279.129,94.1666 281.045,92.7084 C282.959,91.2499 284.342,89.2037 284.984,86.8834 L308.183,31.4854 C308.758,30.17 309.07,28.7549 309.101,27.32 C309.106,26.3834 308.922,25.4553 308.558,24.5921 C308.196,23.7287 307.662,22.948 306.988,22.2976 C306.313,21.6471 305.514,21.1403 304.639,20.808 C303.763,20.4756 302.83,20.3244 301.894,20.3641 L301.894,20.4474 Z" id="Path"></path>
            <path d="M344.625,19.6975 C335.824,19.5147 327.192,22.1249 319.968,27.1534 C318.928,27.744 318.062,28.5973 317.455,29.6279 C316.847,30.6586 316.522,31.8304 316.51,33.0264 C316.489,33.7917 316.619,34.5536 316.895,35.2676 C317.171,35.9816 317.589,36.6331 318.119,37.184 C318.652,37.735 319.288,38.1743 319.991,38.476 C320.694,38.7777 321.451,38.9358 322.217,38.9411 C323.73,38.8304 325.177,38.2802 326.382,37.3582 C331.225,33.8287 337.05,31.9059 343.043,31.8601 C353.914,31.8601 360.121,37.4415 360.121,47.1883 L360.121,48.8128 C335.753,48.8128 310.93,51.8116 310.93,73.2628 C311.179,88.6743 324.217,95.7553 337.338,95.7553 C341.993,95.9597 346.621,94.9681 350.786,92.8756 C354.949,90.7829 358.506,87.6588 361.121,83.8009 L361.121,87.4249 C361.006,88.3911 361.102,89.3706 361.399,90.2969 C361.698,91.2233 362.192,92.0747 362.847,92.7936 C363.502,93.5124 364.305,94.0821 365.2,94.4637 C366.096,94.8454 367.062,95.0302 368.035,95.0055 C368.972,94.9795 369.891,94.7559 370.736,94.3498 C371.581,93.9436 372.33,93.3639 372.935,92.6486 C373.541,91.9331 373.989,91.0982 374.25,90.198 C374.51,89.2978 374.579,88.353 374.449,87.4249 L374.449,48.063 C374.449,30.2773 363.286,19.6975 344.585,19.6975 L344.625,19.6975 Z M357.121,59.7258 L360.204,59.7258 L360.204,63.1413 C360.428,65.8593 360.068,68.594 359.146,71.1609 C358.225,73.7275 356.763,76.0668 354.859,78.0208 C352.957,79.9749 350.658,81.4982 348.116,82.4881 C345.575,83.4781 342.851,83.9114 340.127,83.7593 C336.838,83.7593 326.008,82.968 326.008,72.9296 C326.008,61.1003 343.752,59.7258 357.121,59.7258 Z" id="Shape" fill-rule="nonzero"></path>
            <path d="M412.729,33.9441 C413.585,34.0592 414.457,33.9866 415.283,33.7312 C416.108,33.4761 416.869,33.0441 417.51,32.4653 C418.152,31.8868 418.66,31.1755 418.999,30.3807 C419.34,29.5858 419.501,28.7266 419.476,27.8626 C419.507,26.9923 419.348,26.1259 419.012,25.3226 C418.675,24.5193 418.169,23.7983 417.528,23.2086 C416.888,22.6192 416.127,22.1753 415.298,21.9073 C414.47,21.6395 413.593,21.5538 412.729,21.6565 L399.482,21.6565 L399.482,8.28594 C399.618,7.25146 399.532,6.1999 399.229,5.20151 C398.926,4.20314 398.413,3.28096 397.725,2.49661 C397.037,1.71225 396.191,1.0838 395.238,0.653257 C394.288,0.222715 393.258,0 392.214,0 C391.171,0 390.139,0.222715 389.189,0.653257 C388.238,1.0838 387.392,1.71225 386.704,2.49661 C386.014,3.28096 385.503,4.20314 385.2,5.20151 C384.896,6.1999 384.809,7.25146 384.945,8.28594 L384.945,72.3477 C384.945,87.1761 392.194,95.0067 405.773,95.0067 C408.94,95.077 412.087,94.4958 415.02,93.299 C416.202,92.8216 417.225,92.0146 417.963,90.9734 C418.702,89.9324 419.125,88.701 419.185,87.426 C419.214,86.645 419.081,85.8665 418.798,85.1385 C418.512,84.4107 418.081,83.749 417.532,83.1944 C416.98,82.6398 416.323,82.2044 415.597,81.9147 C414.871,81.6253 414.093,81.4879 413.311,81.5113 C412.42,81.5483 411.537,81.7023 410.687,81.9695 C409.698,82.2554 408.675,82.4094 407.647,82.4276 C402.066,82.4276 399.317,78.7623 399.317,70.8483 L399.317,33.9441 L412.729,33.9441 Z" id="Path"></path>
            <path d="M461.297,19.6984 C456.249,19.4967 451.215,20.3345 446.504,22.1597 C441.793,23.9852 437.51,26.7592 433.916,30.3096 C430.322,33.8599 427.498,38.1109 425.615,42.7988 C423.734,47.4866 422.836,52.5113 422.977,57.5607 C422.891,62.6312 423.82,67.6676 425.709,72.3741 C427.598,77.0806 430.407,81.3624 433.974,84.9682 C441.299,92.0316 451.121,95.9097 461.297,95.7561 C466.364,95.8923 471.405,94.9996 476.117,93.132 C480.828,91.2643 485.113,88.4607 488.711,84.8904 C492.309,81.3203 495.144,77.0576 497.048,72.3601 C498.951,67.6628 499.882,62.6281 499.784,57.5607 C499.914,52.4998 499.002,47.4663 497.106,42.7724 C495.211,38.0785 492.37,33.8243 488.761,30.2741 C485.152,26.7237 480.851,23.953 476.127,22.1337 C471.403,20.3145 466.355,19.4856 461.297,19.6984 Z M461.297,83.1354 C446.052,83.1354 438.096,70.2647 438.096,57.5607 C438.096,40.1082 450.135,32.1525 461.297,32.1525 C472.46,32.1525 484.499,40.1082 484.499,57.5607 C484.499,75.0132 472.46,83.2603 461.297,83.2603 L461.297,83.1354 Z" id="Shape" fill-rule="nonzero"></path>
        </g>
    </g>
</svg>
